symbolic/24x24/apps/preferences-desktop-font.svg

<svg xmlns="http://www.w3.org/2000/svg" width="24" height="24" version="1">
 <rect style="opacity:0.2" width="20" height="20" x="2" y="2.5" rx="1" ry="1"/>
 <rect style="fill:#a7a7a7" width="20" height="20" x="2" y="2" rx="1" ry="1"/>
 <path style="opacity:0.2;fill:#ffffff" d="M 3,2 C 2.446,2 2,2.446 2,3 v 0.5 c 0,-0.554 0.446,-1 1,-1 h 18 c 0.554,0 1,0.446 1,1 V 3 C 22,2.446 21.554,2 21,2 Z"/>
 <path style="opacity:0.1" d="M 18,7 C 16.904,7.5992 14.646,7.5248 12.511,7.4998 10.834,7.5098 7.5624,7.3615 7.0001,8.9999 7.2125,8.7068 11.109,7.3785 10.717,9.0283 10.256,10.373 9.432,11.293 8.7258,12.509 8.0397,12.561 7.0891,12.591 6.4999,13 6.6533,12.905 7.9602,12.645 8.484,12.931 7.6823,14.257 6.8552,15.33 6.267,16.774 6.1051,17.269 5.7402,18.067 6.3005,18.426 6.7757,18.648 6.4429,18.329 6.6353,18.019 7.4414,16.286 8.5514,14.827 9.5645,13.217 10.156,13.463 10.73,13.919 11.375,13.99 12.254,14.095 13.768,12.853 14,12 13,12.751 11.274,12.517 10.134,12.492 L 12.596,8.8975 C 12.838,8.9719 13.266,8.9919 13.974,8.9999 15.623,9.0468 17.732,8.7392 18,7 Z"/>
 <path style="fill:#4f4f4f" d="M 18,6.5 C 16.904,7.0992 14.646,7.0248 12.511,6.9998 10.834,7.0098 7.5624,6.8615 7.0001,8.4999 7.2125,8.2068 11.109,6.8785 10.717,8.5283 10.256,9.8726 9.432,10.793 8.7258,12.009 8.0397,12.061 7.0891,12.091 6.4999,12.5 6.6533,12.405 7.9602,12.145 8.484,12.431 7.6823,13.757 6.8552,14.83 6.267,16.274 6.1051,16.769 5.7402,17.567 6.3005,17.926 6.7757,18.148 6.4429,17.829 6.6353,17.519 7.4414,15.786 8.5514,14.327 9.5645,12.717 10.156,12.963 10.73,13.419 11.375,13.49 12.254,13.595 13.768,12.353 14,11.5 13,12.251 11.274,12.017 10.134,11.992 L 12.596,8.3975 C 12.838,8.4719 13.266,8.4919 13.974,8.4999 15.623,8.5468 17.732,8.2392 18,6.5 Z"/>
</svg>

<svg xmlns="http://www.w3.org/2000/svg" width="24" height="24" version="1"><rect style="opacity:.2" width="20" height="20" x="2" y="2.5" rx="1" ry="1"/><rect style="fill:#a7a7a7" width="20" height="20" x="2" y="2" rx="1" ry="1"/><path style="opacity:.2;fill:#fff" d="M3 2c-.554 0-1 .446-1 1v.5c0-.554.446-1 1-1h18c.554 0 1 .446 1 1V3c0-.554-.446-1-1-1z"/><path style="opacity:.1" d="M18 7c-1.096.6-3.354.525-5.489.5-1.677.01-4.949-.138-5.51 1.5.212-.293 4.108-1.622 3.716.028-.461 1.345-1.285 2.265-1.991 3.481-.686.052-1.637.082-2.226.491.153-.095 1.46-.355 1.984-.069-.802 1.326-1.629 2.399-2.217 3.843-.162.495-.527 1.293.034 1.652.475.222.142-.097.334-.407.806-1.733 1.916-3.192 2.93-4.802.591.246 1.165.702 1.81.773.879.105 2.393-1.137 2.625-1.99-1 .751-2.726.517-3.866.492l2.462-3.595c.242.075.67.095 1.378.103 1.649.047 3.758-.26 4.026-2z"/><path style="fill:#4f4f4f" d="M18 6.5c-1.096.6-3.354.525-5.489.5-1.677.01-4.949-.138-5.51 1.5.212-.293 4.108-1.622 3.716.028-.461 1.345-1.285 2.265-1.991 3.481-.686.052-1.637.082-2.226.491.153-.095 1.46-.355 1.984-.069-.802 1.326-1.629 2.399-2.217 3.843-.162.495-.527 1.293.034 1.652.475.222.142-.097.334-.407.806-1.733 1.916-3.192 2.93-4.802.591.246 1.165.702 1.81.773.879.105 2.393-1.137 2.625-1.99-1 .751-2.726.517-3.866.492l2.462-3.595c.242.075.67.095 1.378.103 1.649.047 3.758-.26 4.026-2z"/></svg>
